!!!OTL: An die Natur.
!!!OTL-incipit:SUESSE HEILIGE NATUR LASS MICH GEHN
!!!COM: J. A. P. Schulz
!!!ARE: Europa, Mitteleuropa, Deutschland
!!!SCT: F0306
!!!TXL: @@DE
!!!YEM: Copyright 1995, estate of Helmut Schaffrath.
**kern	**text
*ICvox	*
*clefG2	*
*M2/4	*
*k[b-e-a-]	*
*E-:	*
!LO:TX:a:t=Sanft.	!
!LO:TX:a:t=P:only the highest voice encoded:problem	!
{8.g	1._Sü-
16a-	-ße
=1	=1
8e-	hei-
8e-	-li-
16dL	-ge
16e-J	.
16fL	Na-
16gJ	.
=2	=2
(8fL	-tur,
8e-J)}	.
{8b-	laß
8g\	mich
=3	=3
8b-	gehn
8g	auf
16fL	dei-
16gJ	.
16a-L	-ner
16b-J	.
=4	=4
(>8a-L	Spur;
8gJ)}	.
{(16ee-L	lei-
16ddJ)	.
(16ccL	-te
16b-J)	.
=5	=5
8a-	mich
8g	an
8.cc/	dei-
32b-L	-ner
32a-J	.
=6	=6
(8gL	Hand,
8fJ)}	.
{16.b-L	wie
32gJ	.
8e-	ein
=7	=7
16.cc/L	Kind
32a-J	.
8f	am
8e-	Gängel-
(>16dL	.
16fJ)	.
=8	=8
(>8fL	-band.
8e-J)}	.
==	==
!!!AGN: Jugend - Lied, Belehrung, Natur
!!!ONB: ESAC (Essen Associative Code) Database: FINK
!!!AMT: simple duple
!!!AIN: vox
!!!EED: Helmut Schaffrath
!!!EEV: 1.0
!!!RDF**kern: > = above
!!!GTL: Jugendlieder
!!Text: Friedr. Leop. Graf zu Stolberg
!!!source: Musikalischer Hausschatz der Deutschen. Eine Sammlung von über 1000 Liedern und Gesängen mit Singstimmen und Klavierbegleitung. Leipzig, Litterarisches Verlags-Haus.
!!!page: 184
!!!URL-scan: https://www.digitale-sammlungen.de/en/view/bsb11144622?page=182,183
!!!ENC: Anna Maria Matuszewska
!!!EEV: 2024/07/30
*-	*-